svgs/sharp-light/sun-haze.svg

<svg xmlns="http://www.w3.org/2000/svg" viewBox="0 0 640 512"><!--! Font Awesome Pro 6.6.0 by @fontawesome - https://fontawesome.com License - https://fontawesome.com/license (Commercial License) Copyright 2024 Fonticons, Inc. --><path d="M242.7 15.5L320 57.1l77.3-41.6L426 0l9.4 31.3 25.2 84.1 84.1 25.2L576 150l-15.5 28.8L518.9 256s0 0 0 0l-36.3 0s0 0 0 0l8.2-15.2 38.5-71.5L451.4 146l-16.5-5-5-16.5L406.7 46.8 335.2 85.3 320 93.5l-15.2-8.2L233.3 46.8 210 124.6l-5 16.5-16.5 5-77.8 23.3 38.5 71.5 8.2 15.2s0 0 0 0l-36.3 0s0 0 0 0L79.5 178.7 64 150l31.3-9.4 84.1-25.2 25.2-84.1L214 0l28.8 15.5zM448 256s0 0 0 0l-32 0s0 0 0 0c0-53-43-96-96-96s-96 43-96 96c0 0 0 0 0 0l-32 0s0 0 0 0c0-70.7 57.3-128 128-128s128 57.3 128 128zM80 288l320 0 16 0 0 32-16 0L80 320l-16 0 0-32 16 0zm416 0l128 0 16 0 0 32-16 0-128 0-16 0 0-32 16 0zM16 384l544 0 16 0 0 32-16 0L16 416 0 416l0-32 16 0zm64 96l128 0 16 0 0 32-16 0L80 512l-16 0 0-32 16 0zm224 0l320 0 16 0 0 32-16 0-320 0-16 0 0-32 16 0z"/></svg>

<svg xmlns="http://www.w3.org/2000/svg" viewBox="0 0 640 512"><!--! Font Awesome Pro 6.4.0 by @fontawesome - https://fontawesome.com License - https://fontawesome.com/license (Commercial License) Copyright 2023 Fonticons, Inc. --><path d="M242.7 15.5L320 57.1l77.3-41.6L426 0l9.4 31.3 25.2 84.1 84.1 25.2L576 150l-15.5 28.8L518.9 256l0 0H482.5l0 0 8.2-15.2 38.5-71.5L451.4 146l-16.5-5-5-16.5L406.7 46.8 335.2 85.3 320 93.5l-15.2-8.2L233.3 46.8 210 124.6l-5 16.5-16.5 5-77.8 23.3 38.5 71.5 8.2 15.2 0 0H121.1l0 0L79.5 178.7 64 150l31.3-9.4 84.1-25.2 25.2-84.1L214 0l28.8 15.5zM448 256v0H416v0c0-53-43-96-96-96s-96 43-96 96v0H192v0c0-70.7 57.3-128 128-128s128 57.3 128 128zM80 288H400h16v32H400 80 64V288H80zm416 0H624h16v32H624 496 480V288h16zM16 384H560h16v32H560 16 0V384H16zm64 96H208h16v32H208 80 64V480H80zm224 0H624h16v32H624 304 288V480h16z"/></svg>
